app/Resources/icons/history.svg

<svg xmlns="http://www.w3.org/2000/svg" viewBox="0 0 24 24"><path d="M12 2C17.5228 2 22 6.47715 22 12C22 17.5228 17.5228 22 12 22C6.47715 22 2 17.5228 2 12H4C4 16.4183 7.58172 20 12 20C16.4183 20 20 16.4183 20 12C20 7.58172 16.4183 4 12 4C9.53614 4 7.33243 5.11383 5.86492 6.86543L8 9H2V3L4.44656 5.44648C6.28002 3.33509 8.9841 2 12 2ZM13 7L12.9998 11.585L16.2426 14.8284L14.8284 16.2426L10.9998 12.413L11 7H13Z"></path></svg>

<svg xmlns="http://www.w3.org/2000/svg" viewBox="0 0 24 24">
    <path fill="none" d="M0 0H24V24H0z"/>
    <path d="M12 2c5.523 0 10 4.477 10 10s-4.477 10-10 10S2 17.523 2 12h2c0 4.418 3.582 8 8 8s8-3.582 8-8-3.582-8-8-8C9.536 4 7.332 5.114 5.865 6.865L8 9H2V3l2.447 2.446C6.28 3.336 8.984 2 12 2zm1 5v4.585l3.243 3.243-1.415 1.415L11 12.413V7h2z"/>
</svg>
